source/img/tires-icon.svg

<svg width="65" height="65" viewBox="0 0 65 65" fill="none" xmlns="http://www.w3.org/2000/svg">
<path d="M32.5 64C49.897 64 64 49.897 64 32.5C64 15.103 49.897 1 32.5 1C15.103 1 1 15.103 1 32.5C1 49.897 15.103 64 32.5 64Z" stroke="white" stroke-width="2" stroke-miterlimit="10"/>
<path d="M32.5002 56.7053C45.8684 56.7053 56.7054 45.8682 56.7054 32.5C56.7054 19.1318 45.8684 8.29474 32.5002 8.29474C19.132 8.29474 8.29492 19.1318 8.29492 32.5C8.29492 45.8682 19.132 56.7053 32.5002 56.7053Z" stroke="white" stroke-width="2" stroke-miterlimit="10"/>
<path d="M32.4999 42.3368C37.9327 42.3368 42.3368 37.9327 42.3368 32.5C42.3368 27.0673 37.9327 22.6631 32.4999 22.6631C27.0672 22.6631 22.6631 27.0673 22.6631 32.5C22.6631 37.9327 27.0672 42.3368 32.4999 42.3368Z" stroke="white" stroke-width="2" stroke-miterlimit="10"/>
<path d="M32.4998 37.8053C35.4908 37.8053 37.9156 35.3805 37.9156 32.3895C37.9156 29.3984 35.4908 26.9737 32.4998 26.9737C29.5087 26.9737 27.084 29.3984 27.084 32.3895C27.084 35.3805 29.5087 37.8053 32.4998 37.8053Z" stroke="white" stroke-width="2" stroke-miterlimit="10"/>
<path d="M24.8737 9.51056C25.0948 10.5053 25.3158 11.6106 25.3158 12.6053C25.3158 19.5685 19.679 25.2053 12.7158 25.2053C11.6106 25.2053 10.6158 25.0948 9.62109 24.7632" stroke="white" stroke-width="2" stroke-miterlimit="10"/>
<path d="M40.1262 9.51056C39.9051 10.5053 39.6841 11.6106 39.6841 12.6053C39.6841 19.5685 45.3209 25.2053 52.2841 25.2053C53.3893 25.2053 54.3841 25.0948 55.3788 24.7632" stroke="white" stroke-width="2" stroke-miterlimit="10"/>
<path d="M24.8737 55.4894C25.0948 54.4947 25.3158 53.3894 25.3158 52.3947C25.3158 45.4315 19.679 39.7947 12.7158 39.7947C11.6106 39.7947 10.6158 39.9052 9.62109 40.2368" stroke="white" stroke-width="2" stroke-miterlimit="10"/>
<path d="M40.1262 55.4895C39.9051 54.4947 39.6841 53.3895 39.6841 52.3947C39.6841 45.4316 45.3209 39.7947 52.2841 39.7947C53.3893 39.7947 54.3841 39.9053 55.3788 40.2368" stroke="white" stroke-width="2" stroke-miterlimit="10"/>
</svg>

<svg width="65" height="65" fill="none" xmlns="http://www.w3.org/2000/svg"><path d="M32.5 64C49.897 64 64 49.897 64 32.5S49.897 1 32.5 1 1 15.103 1 32.5 15.103 64 32.5 64z" stroke="#fff" stroke-width="2" stroke-miterlimit="10"/><path d="M32.5 56.705c13.368 0 24.205-10.837 24.205-24.205 0-13.368-10.837-24.205-24.205-24.205-13.368 0-24.205 10.837-24.205 24.205 0 13.368 10.837 24.205 24.205 24.205z" stroke="#fff" stroke-width="2" stroke-miterlimit="10"/><path d="M32.5 42.337c5.433 0 9.837-4.404 9.837-9.837s-4.404-9.837-9.837-9.837-9.837 4.404-9.837 9.837 4.404 9.837 9.837 9.837z" stroke="#fff" stroke-width="2" stroke-miterlimit="10"/><path d="M32.5 37.805a5.416 5.416 0 100-10.831 5.416 5.416 0 000 10.831zM24.874 9.51c.22.995.442 2.1.442 3.095 0 6.963-5.637 12.6-12.6 12.6-1.105 0-2.1-.11-3.095-.442M40.126 9.51c-.22.995-.442 2.1-.442 3.095 0 6.963 5.637 12.6 12.6 12.6 1.105 0 2.1-.11 3.095-.442M24.874 55.49c.22-.995.442-2.1.442-3.095 0-6.964-5.637-12.6-12.6-12.6-1.105 0-2.1.11-3.095.442M40.126 55.49c-.22-.995-.442-2.1-.442-3.095 0-6.963 5.637-12.6 12.6-12.6 1.105 0 2.1.11 3.095.442" stroke="#fff" stroke-width="2" stroke-miterlimit="10"/></svg>
